16x16/panel/dino-status-online.svg

<svg height="16" width="16" xmlns="http://www.w3.org/2000/svg"><path d="m8 1a7 7 0 0 0 -7 7 7 7 0 0 0 7 7 7 7 0 0 0 7-7 7 7 0 0 0 -7-7zm1.984 1.936a1 1 0 0 1 1.016 1.013v2.91a.997.997 0 0 1 0 .327v4.8l-2 .014h-3l-1-1v-3.982l1-1h3v-2.069a1 1 0 0 1 .984-1.013zm-2.984 5.082v1.982h2v-1.982z" fill="#bebebe"/></svg>

<svg height="16" width="16" xmlns="http://www.w3.org/2000/svg">
    <path d="M8 1a7 7 0 0 0-7 7 7 7 0 0 0 7 7 7 7 0 0 0 7-7 7 7 0 0 0-7-7zm1.984 1.936A1 1 0 0 1 11 3.949v2.91a.997.997 0 0 1 0 .327v4.8L9 12H6l-1-1V7.018l1-1h3V3.949a1 1 0 0 1 .984-1.013zM7 8.018V10h2V8.018z" fill="#bebebe"/>
</svg>
